X: 17997
T: Hughie Travers'
R: jig
M: 6/8
K: Dmajor
B|AFE F2D|AFD EFE|DFA ~d3|BAF E2B|
AFE F2D|AFD EDC|DFA ~d3|BAF D2:|
|:E|FAA BAA|dAA BAd|DFA ~d3|BAF E2D|
FAA BAA|dAA BAd|DFA ~d3|BAF D2:|

